X:1
T:Title
%%score { ( 1 3 ) | ( 2 4 5 ) }
L:1/8
Q:1/4=100
M:4/4
K:D
V:1 treble nm="Grand Piano"
V:3 treble 
V:2 bass 
V:4 bass 
V:5 bass 
V:1
 [FA]3 F EDEF | [FA]2 [FA]6 | [Fd]3 [DAc] [DGB][DBd][DAc][DGB] | [DFA]6 z2 | %4
w: Charles~H.~Gabriel,~Jr. * * * * *||||
 [CEA]3 [CE] [=C^D][^CE][=DF][EG] | [DF]2 [FA]6 | c3 c cBA^G | [CA]2 z2 B2 c2 | %8
w: ||||
 [Fd]3 [Fc] [Ge][Fd][FA][FB] | [Gc]2 [Gc]6 | c3 d cBAG | F6 z2 | [Fd]3 [Fc] [Ge][Fd][Fd]A | %13
w: |||||
 c2 B4 cd | A3 F [DF]2 [CE]2 | D6 z2 |] %16
w: |||
V:2
 [D,D]3 [D,A,D] [D,G,D][D,F,][D,G,D][D,A,D] | [D,D]2 [D,D]6 | [D,A,]3 F, G,G,G,G, | D,6 z2 | %4
 A,,3 [A,,A,] [A,,A,][A,,A,][A,,A,][A,,A,] | [D,A,]2 [D,D]6 | %6
 [E,A,E]3 [E,A,E] [E,A,E][E,DE][E,CE][E,B,D] | z4[K:treble] D2 G2 | %8
 [D,A,]3 [D,A,] [D,A,][D,A,][D,D][D,D] | [E,A,]2 [E,A,]6 | %10
 [A,G]3 [A,G] [A,G][A,G][A,F][K:bass][A,E] | [D,A,D]6 z2 | [D,A,]3 [D,A,] [D,A,][D,A,][D,A,][F,D] | %13
 [G,DA]2 [G,DG]4 [G,CG][G,B,G] | [A,DF]3[K:bass] [A,D] [A,,A,]2 [A,,G,]2 | [D,F,]6 z2 |] %16
V:3
 x8 | x8 | x8 | x8 | x8 | x8 | x8 | z2 A4 z2 | x8 | x8 | x8 | x8 | x8 | x8 | x8 | x8 |] %16
V:4
 x8 | x8 | x8 | x8 | x8 | x8 | x8 | z2[K:treble] C4 z2 | x8 | x8 | x7[K:bass] x | x8 | x8 | x8 | %14
 x3[K:bass] x5 | x8 |] %16
V:5
 x8 | x8 | x8 | x8 | x8 | x8 | x8 | [A,,A,]6[K:treble] z2 | x8 | x8 | x7[K:bass] x | x8 | x8 | x8 | %14
 x3[K:bass] x5 | x8 |] %16

